X: 1
T: Katie's Donkey
M: 6/8
L: 1/8
R: jig
K: Gmaj
|:D|G2A BcA|BGG G2B|dBG FAG|FDA DEF|
G2A BcA|BAg fed|cAG FGA|BGG G2:|
|:z|~g3 afd|cde dBg|gab afd|cde def|
g2g fdf|~e3 gfe|d2d cBA|BGG G2:|
